X: 39187
T: Swinging On The Gate
R: reel
M: 4/4
K: Amajor
afec A/A/A Bc|dB c/B/A BA F2|EAce a2 ba|gaba gefg|
afec A2 Bc|d2 cA BAFA|dBcA BA F/G/A|EAAG A2:|
a2 ab c'/b/a bg|agfe c2 BA|FBBc dcBA|FBBc defg|
agab c'2 bg|agfe c2 Bc|dB c/B/A BAFA|EAAG A2:|

